en/_assets/wiki/svg/access-setup.svg

<svg xmlns="http://www.w3.org/2000/svg" xmlns:xlink="http://www.w3.org/1999/xlink" width="14" height="14" class="yc-icon" fill="currentColor" stroke="none" aria-hidden="true"><svg viewBox="0 0 14 14" xmlns="http://www.w3.org/2000/svg"><path d="M11.9766 6.64258L12.7891 6.18555C13.0176 6.05859 13.1445 5.7793 13.0684 5.5C12.7891 4.43359 12.2051 3.46875 11.4434 2.68164C11.2402 2.50391 10.9355 2.45312 10.707 2.58008L9.89453 3.0625C9.69141 2.91016 9.31055 2.68164 9.05664 2.58008V1.64062C9.05664 1.38672 8.85352 1.10742 8.59961 1.05664C7.55859 0.777344 6.41602 0.777344 5.375 1.05664C5.0957 1.13281 4.91797 1.36133 4.91797 1.64062V2.58008C4.66406 2.68164 4.2832 2.91016 4.08008 3.0625L3.26758 2.58008C3.03906 2.45312 2.73438 2.50391 2.53125 2.68164C1.76953 3.46875 1.18555 4.43359 0.90625 5.5C0.830078 5.7793 0.957031 6.05859 1.18555 6.18555L1.99805 6.64258C1.97266 6.79492 1.97266 6.99805 1.97266 7.125C1.97266 7.27734 1.97266 7.48047 1.99805 7.60742L1.18555 8.08984C0.957031 8.2168 0.830078 8.49609 0.90625 8.77539C1.18555 9.8418 1.76953 10.8066 2.53125 11.5938C2.73438 11.7715 3.03906 11.8223 3.26758 11.6953L4.08008 11.2129C4.2832 11.3652 4.66406 11.5938 4.91797 11.6953V12.6348C4.91797 12.8887 5.12109 13.168 5.375 13.2188C6.41602 13.498 7.55859 13.498 8.59961 13.2188C8.87891 13.1426 9.05664 12.9141 9.05664 12.6348V11.6953C9.31055 11.5938 9.69141 11.3652 9.89453 11.2129L10.707 11.6953C10.9355 11.8223 11.2402 11.7715 11.4434 11.5938C12.2051 10.8066 12.7891 9.8418 13.0684 8.77539C13.1445 8.49609 13.0176 8.2168 12.7891 8.08984L11.9766 7.60742C12.002 7.30273 12.002 6.97266 11.9766 6.64258ZM10.6309 8.26758L11.748 8.90234C11.5957 9.35938 11.1895 10.0195 10.8848 10.375L9.76758 9.74023C8.95508 10.4258 8.85352 10.502 7.83789 10.8574V12.1523C7.60938 12.1777 7.22852 12.2285 7 12.2285C6.74609 12.2285 6.36523 12.1777 6.13672 12.1523V10.8574C5.12109 10.502 4.99414 10.4258 4.20703 9.74023L3.08984 10.375C2.78516 10.0195 2.37891 9.35938 2.22656 8.90234L3.34375 8.26758C3.14062 7.20117 3.14062 7.07422 3.34375 6.00781L2.22656 5.37305C2.42969 4.83984 2.70898 4.33203 3.08984 3.90039L4.20703 4.53516C5.01953 3.84961 5.12109 3.77344 6.13672 3.41797V2.12305C6.36523 2.09766 6.74609 2.04688 7 2.04688C7.22852 2.04688 7.60938 2.09766 7.83789 2.12305V3.41797C8.85352 3.77344 8.98047 3.84961 9.76758 4.53516L10.8848 3.90039C11.1895 4.25586 11.5957 4.91602 11.748 5.37305L10.6309 6.00781C10.834 7.07422 10.834 7.20117 10.6309 8.26758ZM7 4.6875C5.6543 4.6875 4.5625 5.80469 4.5625 7.125C4.5625 8.4707 5.6543 9.5625 7 9.5625C8.32031 9.5625 9.4375 8.4707 9.4375 7.125C9.4375 5.80469 8.32031 4.6875 7 4.6875ZM7 8.34375C6.31445 8.34375 5.78125 7.81055 5.78125 7.125C5.78125 6.46484 6.31445 5.90625 7 5.90625C7.66016 5.90625 8.21875 6.46484 8.21875 7.125C8.21875 7.81055 7.66016 8.34375 7 8.34375Z"></path></svg></svg>

<svg xmlns="http://www.w3.org/2000/svg" width="14" height="14" fill="currentColor" aria-hidden="true" class="yc-icon"><svg xmlns="http://www.w3.org/2000/svg" viewBox="0 0 14 14"><path d="m11.977 6.643.812-.457a.601.601 0 0 0 .28-.686c-.28-1.066-.864-2.031-1.626-2.818-.203-.178-.508-.229-.736-.102l-.812.482a4.505 4.505 0 0 0-.838-.482v-.94c0-.253-.203-.533-.457-.583a6.31 6.31 0 0 0-3.225 0 .596.596 0 0 0-.457.584v.94c-.254.1-.635.33-.838.482l-.812-.483c-.229-.127-.534-.076-.737.102C1.77 3.469 1.186 4.434.906 5.5c-.076.28.051.559.28.686l.812.457c-.025.152-.025.355-.025.482 0 .152 0 .355.025.482l-.812.483a.601.601 0 0 0-.28.685c.28 1.067.864 2.032 1.625 2.819.203.178.508.228.737.101l.812-.482c.203.152.584.38.838.482v.94c0 .254.203.533.457.584 1.041.279 2.184.279 3.225 0a.596.596 0 0 0 .457-.584v-.94c.254-.101.634-.33.838-.482l.812.482c.228.127.533.076.736-.101.762-.787 1.346-1.752 1.625-2.819a.601.601 0 0 0-.279-.685l-.812-.483a6.116 6.116 0 0 0 0-.964ZM10.63 8.268l1.117.634c-.152.457-.558 1.118-.863 1.473L9.768 9.74c-.813.686-.914.762-1.93 1.117v1.295c-.229.026-.61.077-.838.077-.254 0-.635-.051-.863-.077v-1.295c-1.016-.355-1.143-.431-1.93-1.117l-1.117.635c-.305-.355-.711-1.016-.863-1.473l1.117-.634c-.203-1.067-.203-1.194 0-2.26l-1.117-.635A4.784 4.784 0 0 1 3.09 3.9l1.117.635c.813-.685.914-.762 1.93-1.117V2.123c.228-.025.61-.076.863-.076.229 0 .61.05.838.076v1.295c1.016.355 1.142.432 1.93 1.117l1.117-.635c.305.356.71 1.016.863 1.473l-1.117.635c.203 1.066.203 1.193 0 2.26ZM7 4.688a2.455 2.455 0 0 0-2.438 2.437A2.438 2.438 0 0 0 7 9.563a2.455 2.455 0 0 0 2.438-2.438c0-1.32-1.118-2.438-2.438-2.438Zm0 3.656a1.203 1.203 0 0 1-1.219-1.219c0-.66.533-1.219 1.219-1.219.66 0 1.219.559 1.219 1.219 0 .686-.559 1.219-1.219 1.219Z"/></svg></svg>
